!!!COA:	Josquin des Prez
!!!CDT:	~1450-1521/08/27
!!!OTL:	Clamavi ad dominum cum tribularer
!!!AGN:	Motet
!!!SCT:	NJE 15.8
!!!SCA:	New Josquin Edition 15.8
!!!voices:	4
**kern	**kern	**kern	**kern
*staff4	*staff3	*staff2	*staff1
*Ivox	*Ivox	*Ivox	*Ivox
*I"Bassus	*I"Tenor	*I"Altus	*I"Discantus
*I'B	*I'T	*I'A	*I'D
*>[A,B,C,D]	*>[A,B,C,D]	*>[A,B,C,D]	*>[A,B,C,D]
*>A	*>A	*>A	*>A
*clefF4	*clefGv2	*clefG2	*clefG2
*k[]	*k[]	*k[]	*k[]
*M2/1	*M2/1	*M2/1	*M2/1
*met(C|)	*met(C|)	*met(C|)	*met(C|)
!!section: Prima pars: Clamavi ad dominum cum tribularer
!!!OMD: Prima pars: Clamavi ad dominum cum tribularer
=1-	=1-	=1-	=1-
0E	[0e	0b	0ee
=2	=2	=2	=2
1A	0e]	1cc	1ee
1G	.	1b	[1gg
=3	=3	=3	=3
1.c	[0e	0g	2gg\]
.	.	.	2ff\
.	.	.	2ee\
2B\	.	.	2dd\
=4	=4	=4	=4
1A	0e]	1.a	1.cc
1c	.	.	.
.	.	2g/	2dd\
=5	=5	=5	=5
0G	[0d	0g	1b
.	.	.	1b
=6	=6	=6	=6
[0G	0d]	1.dd	2r
.	.	.	1b
.	.	2b\	4a/
.	.	.	4g/
=7	=7	=7	=7
0G]	0d	0b	0dd
=8	=8	=8	=8
0r	0e	1r	1gg
.	.	1cc	2gg\
.	.	.	2gg\
=9	=9	=9	=9
1c	1e	2cc\	0ee
.	.	2cc\	.
2c\	1e	1a	.
2c\	.	.	.
=10	=10	=10	=10
2A\	0e	1a	2r
2A\	.	.	1cc
2A\	.	2a/	.
2A\	.	2a/	2cc\
=11	=11	=11	=11
1e	1r	1g	1b
1c	1e	1g	2cc\
.	.	.	[2gg\
=12	=12	=12	=12
2r	2e\	2r	4gg\]
.	.	.	4ff\
1c	2e\	1g	4ee\
.	.	.	4dd\
.	1e	.	1cc
2A\	.	[2a/	.
=13	=13	=13	=13
1B	1d	2a/]	1dd
.	.	2g#i/	.
1A	1e	[1a	2.cc\
.	.	.	4b\
=14	=14	=14	=14
0D	0f	1a]	2a/
.	.	.	2.dd\
.	.	1r	.
.	.	.	4cc\
.	.	.	4b\
.	.	.	4a/
=15	=15	=15	=15
0E	[0e	2r	1g
.	.	2.g/	.
.	.	.	2.gg\
.	.	4f/	.
.	.	4e/	.
.	.	4d/	4ff\
=16	=16	=16	=16
1E	0e]	2c/	2ee\
.	.	1B	4gg\
.	.	.	4ff\
1E	.	.	4ee\
.	.	.	4dd\
.	.	[2e/	4cc\
.	.	.	4b\
=17	=17	=17	=17
1F	0r	2e/]	1a
.	.	2d/	.
1E	.	1e	1g
=18	=18	=18	=18
0F	0d	0A	0a
=19	=19	=19	=19
[0E	0e	0B	1g
.	.	.	[1gg
=20	=20	=20	=20
0E]	1.g	0G	2gg\]
.	.	.	2ff\
.	.	.	2ee\
.	2f\	.	2dd\
=21	=21	=21	=21
1C	1e	0g	2ee\
.	.	.	1cc
1G	1d	.	.
.	.	.	[2b\
=22	=22	=22	=22
0A	0c	2e/	2b\]
.	.	1e	4a/
.	.	.	4g/
.	.	.	1a
.	.	4d/	.
.	.	4c/	.
=23	=23	=23	=23
1E	[0B	1.g	[0b
[1G	.	.	.
.	.	4f/	.
.	.	4e/	.
=24	=24	=24	=24
1G]	0B]	1d	0b]
1G	.	2e/	.
.	.	2g/	.
=25	=25	=25	=25
1A	0r	2f/	0r
.	.	1e	.
1F	.	.	.
.	.	2d/	.
=26	=26	=26	=26
0E	2r	0e	0b
.	1g	.	.
.	2e\	.	.
=27	=27	=27	=27
0r	2f\	1r	1dd
.	4e\	.	.
.	4d\	.	.
.	1c	1e	1ee
=28	=28	=28	=28
1r	1.c	1g	1.ee
2r	.	1a	.
[2A\	2c\	.	2ee\
=29	=29	=29	=29
4A\]	1c	1a	1ee
4A\	.	.	.
2A\	.	.	.
2d\	2f\	2a/	2r
2c\	2e\	2a/	[2ee\
=30	=30	=30	=30
2d\	2f\	2a/	4ee\]
.	.	.	4dd\
2d\	4e\	1a	2dd\
.	4d\	.	.
2A\	1c	.	1ee
2A\	.	2a/	.
=31	=31	=31	=31
0d	4d\	2.a/	0ff
.	4e\	.	.
.	4f\	.	.
.	4g\	4g/	.
.	2a\	4f/	.
.	.	4g/	.
.	2f\	4a/	.
.	.	4b\	.
=32	=32	=32	=32
0c	1g	1cc	1ee
.	2r	[1cc	[1ee
.	2e\	.	.
=33	=33	=33	=33
2r	2g\	1cc]	1ee]
2A\	2a\	.	.
2c\	[1e	2r	1ee
2c\	.	2a/	.
=34	=34	=34	=34
1A	1e]	2cc\	1ee
.	.	2cc\	.
2r	1r	1a	1ee
2A\	.	.	.
=35	=35	=35	=35
2G\	2r	1r	1ee
2A\	2a\	.	.
2E\	2g\	2r	1ee
2A\	2a\	2a/	.
=36	=36	=36	=36
1.c	2.e\	2g/	0ee
.	.	2a/	.
.	4f\	.	.
.	2g\	1e	.
[2A\	[2c\	.	.
=37	=37	=37	=37
4A\]	4c\]	4f/	0r
4G\	4B\	4e/	.
4F\	4A/	1e	.
4E\	4G/	.	.
1F	1A	.	.
.	.	2d/	.
=38	=38	=38	=38
0E	1B	0e	1ee
.	2G/	.	1ee
.	[2g\	.	.
=39	=39	=39	=39
0r	2g\]	1r	2dd\
.	2e\	.	1ee
.	1f	[1a	.
.	.	.	2dd\
=40	=40	=40	=40
1A	1e	1a]	[0ee
1A	2r	1a	.
.	[2e\	.	.
=41	=41	=41	=41
1E	2e\]	2g/	0ee_
.	2c\	1a	.
1E	1B	.	.
.	.	2g#i/	.
=42	=42	=42	=42
2e\	1A	0a	0ee]
2.c\	.	.	.
.	1a	.	.
4d\	.	.	.
4e\	.	.	.
4f\	.	.	.
=43	=43	=43	=43
1.e	[0g	0b	1.gg
2d\	.	.	2ff\
=44	=44	=44	=44
1c	0g]	2r	1ee
.	.	1cc	.
1G	.	.	1dd
.	.	2b\	.
=45	=45	=45	=45
2r	1e	2cc\	1cc
2c\	.	1a	.
1G	1d	.	1b
.	.	[2g/	.
=46	=46	=46	=46
0A	1c	2g/]	0cc
.	.	4f#i/	.
.	.	4e/	.
.	2r	1f#i	.
.	2c\	.	.
=47	=47	=47	=47
1G	2d\	[0g	[0b
.	1e	.	.
2E\	.	.	.
[2G\	2d\	.	.
=48	=48	=48	=48
2G\]	0e	0g]	0b]
2E\	.	.	.
1E	.	.	.
=49	=49	=49	=49
0r	0r	1r	2r
.	.	.	2.e/
.	.	1e	.
.	.	.	4f/
.	.	.	4g/
.	.	.	4a/
=50	=50	=50	=50
0r	0r	2e/	2b\
.	.	2e/	2cc\
.	.	2d/	2dd\
.	.	4c/	2ee\
.	.	4d/	.
=51	=51	=51	=51
0r	0r	4e/	4gg\
.	.	4f/	4ff\
.	.	1g	4ee\
.	.	.	4dd\
.	.	.	4cc\
.	.	.	4b\
.	.	[2a/	4a/
.	.	.	4b\
=52	=52	=52	=52
0r	0r	2a/]	4cc\
.	.	.	4dd\
.	.	2g/	1ee
.	.	1f	.
.	.	.	2dd\
=53	=53	=53	=53
1r	1r	1e	[0ee
1A	2r	2r	.
.	2e\	[2cc\	.
=54	=54	=54	=54
2A\	2e\	2cc\]	0ee]
2A\	2e\	2cc\	.
1A	4c\	2cc\	.
.	4d\	.	.
.	4e\	2cc\	.
.	4f\	.	.
=55	=55	=55	=55
2G\	2g\	2b\	0r
2A\	1e	2a/	.
1B	.	2a/	.
.	2d\	2g#i/	.
=56	=56	=56	=56
0A	0e	0a	1ee
.	.	.	2ee\
.	.	.	2ee\
=57	=57	=57	=57
0r	2r	0r	2.gg\
.	2e\	.	.
.	.	.	4ff\
.	2e\	.	4ee\
.	.	.	4dd\
.	2e\	.	2cc\
=58	=58	=58	=58
0r	2.g\	0r	2.b\
.	4f\	.	4dd\
.	2e\	.	2cc\
.	2d\	.	[2b\
=59	=59	=59	=59
0r	2.c\	0r	2b\]
.	.	.	4a/
.	4B\	.	4g/
.	1c	.	1a
=60	=60	=60	=60
2r	[0B	0r	[0b
1E	.	.	.
2E\	.	.	.
=61	=61	=61	=61
2E\	0B]	2r	0b]
2.G\	.	2e/	.
.	.	2e/	.
4F\	.	.	.
4E\	.	2e/	.
4D\	.	.	.
=62	=62	=62	=62
2C/	1e	2.g/	1r
2.c\	.	.	.
.	.	4f/	.
.	2r	4e/	2r
4B\	.	4d/	.
2c\	2e\	2a/	[2ee\
=63	=63	=63	=63
1d	1f	2a/	2ee\]
.	.	2a/	2dd\
2r	1e	2.cc\	2.ee\
2A\	.	.	.
.	.	4b\	4dd\
=64	=64	=64	=64
2A\	1r	4a/	4cc\
.	.	4g/	4b\
2A\	.	2f/	2a/
2.c\	1r	2.e/	1g
4B\	.	4g/	.
=65	=65	=65	=65
2A\	1r	2f/	2r
2G\	.	1e	2g/
1F	1r	.	2cc\
.	.	2d/	2dd\
=66	=66	=66	=66
1E	2r	2a/	2ee\
.	2.e\	1cc	1ee
1r	.	.	.
.	4f\	.	.
.	2g\	2b\	2dd\
=67	=67	=67	=67
0r	2c\	2a/	1ee
.	1e	2g/	.
.	.	1f	1r
.	2d\	.	.
=68	=68	=68	=68
2r	2e\	0e	2r
1A	1c	.	2ee\
.	.	.	2ee\
2G\	2B\	.	2ee\
=69	=69	=69	=69
2A\	0c	2.cc\	2.ee\
2A\	.	.	.
.	.	4b\	4dd\
2A\	.	4a/	4cc\
.	.	4g/	4b\
2A\	.	2f/	2a/
=70	=70	=70	=70
1G	2.d\	2g/	2b\
.	.	2b\	1dd
.	4e\	.	.
1A	2f\	2a/	.
.	[2e\	[2a/	2cc\
=71	=71	=71	=71
1B	2e\]	2a/]	1dd
.	2d\	2g#i/	.
[1A	1e	1a	[1cc
=72	=72	=72	=72
1A]	2r	2r	1cc]
.	2e\	2a/	.
1r	2d\	2f/	2b\
.	2B\	4e/	[2b\
.	.	4d/	.
=73	=73	=73	=73
1A	1c	2e/	2b\]
.	.	2f/	2a/
1G	1B	1g	1b
=74	=74	=74	=74
2A\	0e	1c	2r
2A\	.	.	2a/
[1A	.	2r	2a/
.	.	2cc\	2a/
=75	=75	=75	=75
1A]	2r	2a/	2.cc\
.	1c	2.cc\	.
.	.	.	4b\
1r	.	.	4a/
.	.	4b\	4g/
.	2d\	2a/	2f/
=76	=76	=76	=76
0r	2e\	2g/	2e/
.	2c\	2a/	1ee
.	1d	1f	.
.	.	.	2dd\
=77	=77	=77	=77
2r	1c	1e	0ee
2A\	.	.	.
1A	2r	1a	.
.	[2e\	.	.
=78	=78	=78	=78
2.c\	4e\]	4g/	2r
.	4f\	4f/	.
.	2g\	4e/	2ee\
4B\	.	4d/	.
2A\	2f\	2c/	2ff\
2G\	[2e\	[2B/	2gg\
=79	=79	=79	=79
1F	2e\]	2B/]	1aa
.	2d\	2A/	.
1E	2.e\	2B/	2.gg\
.	.	4c/	.
.	4d\	4d/	4ff\
=80	=80	=80	=80
0r	2c\	4e/	2ee\
.	.	4f/	.
.	2B\	1g	2dd\
.	1A	.	1cc
.	.	2f/	.
=81	=81	=81	=81
0E	0G	1g	1b
.	.	1c	1ee
=82	=82	=82	=82
0F	0A	0d	2dd\
.	.	.	2cc\
.	.	.	2b\
.	.	.	2a/
=83	=83	=83	=83
0El	0Bl	0el	0gl
!!LO:LB:i:g=z
=84||	=84||	=84||	=84||
*>B	*>B	*>B	*>B
*clefF4	*clefGv2	*clefG2	*clefG2
*k[]	*k[]	*k[]	*k[]
*M2/1	*M2/1	*M2/1	*M2/1
*met(C|)	*met(C|)	*met(C|)	*met(C|)
!!section: Secunda pars: Heu mihi quia
!!!OMD: Secunda pars: Heu mihi quia
0r	0e	0r	0r
=85	=85	=85	=85
0r	1d	0r	0b
.	1e	.	.
=86	=86	=86	=86
0r	1c	2r	1a
.	.	1a	.
.	1B	.	1b
.	.	2g/	.
=87	=87	=87	=87
0A	2r	0a	0cc
.	1e	.	.
.	4d\	.	.
.	4c\	.	.
=88	=88	=88	=88
1G	1g	1b	1b
1A	[1c	2cc\	[1ee
.	.	[2a/	.
=89	=89	=89	=89
0A	2c\]	2a/]	2ee\]
.	2c\	4g/	2ee\
.	.	4f/	.
.	1c	1e	[1ee
=90	=90	=90	=90
0A	1c	2e/	1ee]
.	.	1a	.
.	1r	.	2ff\
.	.	2f/	2aa\
=91	=91	=91	=91
0r	2.c\	4g/	2.gg\
.	.	4f/	.
.	.	4e/	.
.	4d\	4d/	4ff\
.	4e\	1c	4ee\
.	4f\	.	4dd\
.	4g\	.	[2ee\
.	4a\	.	.
=92	=92	=92	=92
1r	1f	1d	2ee\]
.	.	.	2dd\
[1A	[1e	[1c	1ee
=93	=93	=93	=93
2A\]	2e\]	1c]	2r
2A\	1f	.	2cc\
1A	.	2cc\	2a/
.	2e\	2a/	[2cc\
=94	=94	=94	=94
1A	1c	2.cc\	4cc\]
.	.	.	4b\
.	.	.	4a/
.	.	4b\	4g/
1A	2r	4a/	4f/
.	.	4g/	4e/
.	[2c\	[2a/	2ee\
=95	=95	=95	=95
1A	2c\]	2a/]	2ff\
.	2A/	2f/	2aa\
1r	1e	2g/	2.gg\
.	.	[2cc\	.
.	.	.	4ff\
=96	=96	=96	=96
1A	1c	4cc\]	4ee\
.	.	4b\	4dd\
.	.	4a/	2ee\
.	.	4g/	.
1A	2e\	1a	1cc
.	2f\	.	.
=97	=97	=97	=97
1G	1g	2b\	1b
.	.	2dd\	.
1A	2e\	4cc\	1r
.	.	4b\	.
.	2c\	4a/	.
.	.	4g/	.
=98	=98	=98	=98
0B	1d	4f/	1b
.	.	4d/	.
.	.	2.g/	.
.	1G	.	1dd
.	.	4f/	.
.	.	4e/	.
.	.	4d/	.
=99	=99	=99	=99
2r	1.g	1c	1ee
2c\	.	.	.
2B\	.	1r	2dd\
2c\	[2g\	.	[2ee\
=100	=100	=100	=100
1A	2g\]	1c	2ee\]
.	2f\	.	4dd\
.	.	.	4cc\
1G	1g	2d/	2b\
.	.	[2d/	2gg\
=101	=101	=101	=101
0r	0r	2d/]	2ff\
.	.	2e/	1ee
.	.	1f	.
.	.	.	2dd\
=102	=102	=102	=102
1r	1r	1e	1ee
2r	2r	2r	2r
2A\	[2c\	[2a/	[2ee\
=103	=103	=103	=103
1A	2c\]	2a/]	2ee\]
.	2c\	2a/	2ee\
1c	1e	2g/	2ee\
.	.	2g/	2ee\
=104	=104	=104	=104
2c\	2e\	2a/	2ee\
2A\	2a\	1cc	1ee
2c\	2g\	.	.
2G\	2g\	2b\	2ee\
=105	=105	=105	=105
2c\	2e\	2cc\	2ee\
2c\	2e\	2cc\	2ee\
2d\	2f\	2a/	2dd\
2d\	2f\	2a/	2dd\
=106	=106	=106	=106
2.A\	1e	1a	1ee
4B\	.	.	.
4c\	1r	[1g	2ee\
4d\	.	.	.
2e\	.	.	[2gg\
=107	=107	=107	=107
1c	0r	1g]	2gg\]
.	.	.	4ff\
.	.	.	4ee\
2B\	.	1g	2dd\
[2c\	.	.	[2ee\
=108	=108	=108	=108
4c\]	0r	[0e	4ee\]
4B\	.	.	4dd\
4A\	.	.	4cc\
4G\	.	.	4b\
1A	.	.	1cc
=109	=109	=109	=109
1E	0g	0e]	0b
1r	.	.	.
=110	=110	=110	=110
0A	1e	[0c	2.cc\
.	.	.	4dd\
.	1e	.	1ee
=111	=111	=111	=111
0A	2.c\	0c]	2r
.	.	.	2a/
.	4d\	.	.
.	2e\	.	2.cc\
.	2f\	.	.
.	.	.	4dd\
=112	=112	=112	=112
1.A	2e\	0r	2ee\
.	1a	.	2ff\
.	.	.	2ee\
2A\	[2cc\	.	[2aa\
=113	=113	=113	=113
1A	4cc\]	1c	4aa\]
.	4b\	.	4gg\
.	4a\	.	4ff\
.	4g\	.	4ee\
1r	1f	1d	1dd
=114	=114	=114	=114
1A	1.e	1c	2ee\
.	.	.	2.a/
1A	.	1cc	.
.	.	.	4a/
.	2c\	.	2a/
=115	=115	=115	=115
2A\	0c	2a/	2.cc\
2A\	.	2.cc\	.
.	.	.	4b\
1A	.	.	4a/
.	.	4b\	4g/
.	.	2a/	2f/
=116	=116	=116	=116
2.c\	1.e	2g/	2e/
.	.	2.a/	2ee\
4B\	.	.	.
4A\	.	.	2ee\
4G\	.	4b\	.
2A\	2e\	2cc\	2ee\
=117	=117	=117	=117
0E	1e	2b\	2.gg\
.	.	1b	.
.	.	.	4ff\
.	1e	.	4ee\
.	.	.	4dd\
.	.	4a/	2ee\
.	.	4g/	.
=118	=118	=118	=118
1A	1e	1a	1cc
1G	2.g\	1b	2b\
.	.	.	2dd\
.	4f\	.	.
=119	=119	=119	=119
0r	4e\	2r	4cc\
.	4d\	.	4b\
.	2e\	1e	1b
.	1c	.	.
.	.	2e/	2a/
=120	=120	=120	=120
1E	0B	2.g/	0b
.	.	4f/	.
2.G\	.	4e/	.
.	.	4d/	.
.	.	[2g/	.
4F\	.	.	.
=121	=121	=121	=121
4E\	1B	4g/]	0r
4D\	.	4f/	.
2G\	.	4e/	.
.	.	4d/	.
2A\	1c	2c/	.
2E\	.	[2e/	.
=122	=122	=122	=122
1F	0A	2e/]	0r
.	.	4d/	.
.	.	4c/	.
1F	.	1d	.
=123	=123	=123	=123
0E	0B	0e	0ee
=124	=124	=124	=124
1B	1d	1r	1dd
2c\	[1c	[1a	1ee
[2A\	.	.	.
=125	=125	=125	=125
4A\]	1c]	1a]	1ee
4G\	.	.	.
2A\	.	.	.
1E	1B	1g	1ee
=126	=126	=126	=126
2.A\	2A/	1a	1ee
.	1e	.	.
4B\	.	.	.
2c\	.	1a	1ee
2A\	2e\	.	.
=127	=127	=127	=127
1d	1f	1a	1dd
1A	1e	1a	2ee\
.	.	.	4a/
.	.	.	4b\
=128	=128	=128	=128
2A\	1c	1a	4cc\
.	.	.	4dd\
2A\	.	.	4ee\
.	.	.	4ff\
2E\	2B\	2g/	1gg
2G\	[2B\	[2e/	.
=129	=129	=129	=129
1F	2B\]	2e/]	1aa
.	2A/	2d/	.
1E	[1B	[1e	2.gg\
.	.	.	4ff\
=130	=130	=130	=130
1E	1B]	1e]	4ee\
.	.	.	4dd\
.	.	.	4cc\
.	.	.	4b\
1D	1r	1f	4dd\
.	.	.	4cc\
.	.	.	4b\
.	.	.	4a/
=131	=131	=131	=131
2.E\	1B	1e	2g/
.	.	.	1b
4F\	.	.	.
2G\	2B\	[1e	.
2A\	2c\	.	2a/
=132	=132	=132	=132
2G\	2B\	1e]	2b\
2.c\	2.e\	.	1g
.	.	1r	.
4d\	4d\	.	.
[2e\	[2g\	.	[2cc\
=133	=133	=133	=133
4e\]	4g\]	0r	4cc\]
4d\	4f\	.	4b\
4c\	4e\	.	4a/
4B\	4d\	.	4g/
1c	2e\	.	1a
.	4d\	.	.
.	4c\	.	.
=134	=134	=134	=134
0G	1B	1r	1b
.	1B	[1e	1b
=135	=135	=135	=135
0C	0c	1e]	0g
.	.	1e	.
=136	=136	=136	=136
2r	2r	1e	2r
2G\	1B	.	1g
2E\	.	1e	.
2A\	2c\	.	2a/
=137	=137	=137	=137
2G\	2B\	2r	2.b\
2E\	2G/	1e	.
.	.	.	4cc\
1F	1A	.	1a
.	.	2d/	.
=138	=138	=138	=138
[0E	0B	1.e	[0g
.	.	4d/	.
.	.	4c/	.
=139	=139	=139	=139
0E]	1.e	1B	0g]
.	.	1b	.
.	2e\	.	.
=140	=140	=140	=140
2r	1e	1cc	2r
1A	.	.	2cc\
.	1e	2a/	2cc\
2A\	.	2a/	2cc\
=141	=141	=141	=141
2G\	1.g	2b\	2dd\
1c	.	1cc	1ee
2d\	2f\	2a/	2dd\
=142	=142	=142	=142
1A	1e	1cc	1ee
1r	1d	2b\	1r
.	.	[2b\	.
=143	=143	=143	=143
0A	0c	2b\]	1.ee
.	.	4a/	.
.	.	4g/	.
.	.	1a	.
.	.	.	2ee\
=144	=144	=144	=144
1E	1B	1b	1ee
1e	1A	1r	1ee
=145	=145	=145	=145
1c	1r	0r	2ee\
.	.	.	2.gg\
1B	1G	.	.
.	.	.	4ff\
.	.	.	4ee\
.	.	.	4dd\
=146	=146	=146	=146
0A	0c	1.e	0cc
.	.	2f/	.
=147	=147	=147	=147
0G	1.d	2.g/	0b
.	.	8f/	.
.	.	8e/	.
.	.	2d/	.
.	2B\	2g/	.
=148	=148	=148	=148
1A	1c	2f/	0r
.	.	1e	.
1F	1A	.	.
.	.	2d/	.
=149	=149	=149	=149
[0El	[0Bl	[0el	[0b
=150	=150	=150	=150
0E_	0B_	0e_	0b]
=151	=151	=151	=151
0E]	0B]	0e]	0eel
!!LO:LB:i:g=z
=152||	=152||	=152||	=152||
*>C	*>C	*>C	*>C
*clefF4	*clefGv2	*clefG2	*clefG2
*k[]	*k[]	*k[]	*k[]
*M2/1	*M2/1	*M2/1	*M2/1
*met(C|)	*met(C|)	*met(C|)	*met(C|)
!!section: Tertia pars: Gloria patri et filio
!!!OMD: Tertia pars: Gloria patri et filio
1.A	0r	0r	0r
2G\	.	.	.
=153	=153	=153	=153
1A	2r	0r	0r
.	1e	.	.
1F	.	.	.
.	2d\	.	.
=154	=154	=154	=154
1E	1e	0r	2r
.	.	.	1ee
1r	1f	.	.
.	.	.	2dd\
=155	=155	=155	=155
1A	1e	2r	1ee
.	.	1a	.
1B	1r	.	1dd
.	.	2g/	.
=156	=156	=156	=156
2A\	0e	2a/	1cc
2c\	.	1a	.
2A\	.	.	2cc\
4G\	.	2a/	4b\
4F\	.	.	4a/
=157	=157	=157	=157
0E	1.e	1g	1.b
.	.	2g/	.
.	2e\	2g/	2b\
=158	=158	=158	=158
2r	[0e	1g	1b
2G\	.	.	.
2A\	.	2cc\	[1ee
2G\	.	2b\	.
=159	=159	=159	=159
1A	0e]	1cc	2ee\]
.	.	.	2ee\
1E	.	2b\	2.gg\
.	.	[2cc\	.
.	.	.	4ff\
=160	=160	=160	=160
0r	0r	2cc\]	2ee\
.	.	2b\	2dd\
.	.	1a	1cc
=161	=161	=161	=161
2r	0r	1g	1b
1e	.	.	.
.	.	1f	2r
2d\	.	.	2ee\
=162	=162	=162	=162
2e\	2r	1e	2.gg\
2.c\	1e	.	.
.	.	.	4ff\
.	.	1r	4ee\
4B\	.	.	4dd\
4A\	2e\	.	4cc\
4G\	.	.	4b\
=163	=163	=163	=163
1A	1e	1c	1cc
1E	2.g\	2.e/	1b
.	4f\	4f/	.
=164	=164	=164	=164
1r	2e\	2g/	2r
.	2d\	2f/	1b
2r	1c	2g/	.
2A\	.	2f/	2a/
=165	=165	=165	=165
1G	1B	1g	1b
2A\	2r	2e/	1cc
2A\	[2e\	2c/	.
=166	=166	=166	=166
2G\	2e\]	0g	2b\
2G\	2d\	.	2b\
2E\	2e\	.	2b\
2E\	2e\	.	2b\
=167	=167	=167	=167
2B\	2d\	1g	1b
2B\	2d\	.	.
1c	2e\	[1g	1ee
.	2e\	.	.
=168	=168	=168	=168
1c	1e	2g/]	1ee
.	.	2a/	.
1B	1r	1b	1dd
=169	=169	=169	=169
1A	2r	1cc	1ee
.	1e	.	.
2r	.	2r	1ff
2d\	2d\	[2a/	.
=170	=170	=170	=170
2.c\	1e	2a/]	1ee
.	.	2g/	.
4B\	.	.	.
4A\	1f	1a	1r
4G\	.	.	.
2F\	.	.	.
=171	=171	=171	=171
2G\	1e	2b\	0r
2.A\	.	2.cc\	.
.	2r	.	.
4B\	.	4b\	.
2c\	[2e\	[2a/	.
=172	=172	=172	=172
1B	2e\]	2a/]	1r
.	2d\	2g#i/	.
2A\	1e	1a	2r
[2A\	.	.	[2cc\
=173	=173	=173	=173
2A\]	1e	2A/	2cc\]
2G\	.	2B/	1b
1A	[1e	1c	.
.	.	.	2a/
=174	=174	=174	=174
1E	1e]	2B/	1b
.	.	1e	.
1F	1r	.	1r
.	.	2d/	.
=175	=175	=175	=175
[0E	1.e	[0g	2.ee\
.	.	.	4ee\
.	.	.	2ee\
.	2e\	.	2ee\
=176	=176	=176	=176
0E]	1e	0g]	2.gg\
.	.	.	4ff\
.	1e	.	4ee\
.	.	.	4dd\
.	.	.	2cc\
=177	=177	=177	=177
0r	2.g\	0r	2.b\
.	4f\	.	4dd\
.	2e\	.	2cc\
.	2d\	.	[2b\
=178	=178	=178	=178
0r	2.c\	0r	2b\]
.	.	.	4a/
.	4B\	.	4g/
.	1c	.	1a
=179	=179	=179	=179
2r	[0B	0r	[0b
2.E\	.	.	.
4E\	.	.	.
2E\	.	.	.
=180	=180	=180	=180
2E\	0B]	2.e/	0b]
2.G\	.	.	.
.	.	4e/	.
.	.	2e/	.
4F\	.	.	.
4E\	.	2e/	.
4D\	.	.	.
=181	=181	=181	=181
2C/	1e	2.g/	1r
2.c\	.	.	.
.	.	4f/	.
.	2r	4e/	2r
4B\	.	4d/	.
2c\	2e\	[2a/	[2ee\
=182	=182	=182	=182
1d	1f	4a/]	2ee\]
.	.	4a/	.
.	.	2a/	2dd\
2.A\	1e	2.cc\	2.ee\
4A\	.	4b\	4dd\
=183	=183	=183	=183
2A\	0r	4a/	4cc\
.	.	4g/	4b\
2A\	.	2f/	2a/
2.c\	.	2.e/	1g
4B\	.	4g/	.
=184	=184	=184	=184
2A\	1r	2f/	2r
2G\	.	1e	2gg\
1F	1A	.	1aa
.	.	2d/	.
=185	=185	=185	=185
1E	1B	1e	2.gg\
.	.	.	4ff\
2r	2c\	1r	2ee\
2G\	2B\	.	2dd\
=186	=186	=186	=186
2A\	2c\	2r	2cc\
2E\	2G/	2g/	2b\
1F	4A/	4f/	1a
.	4B\	4g/	.
.	4c\	4a/	.
.	4d\	4f/	.
=187	=187	=187	=187
1E	4e\	4g/	1b
.	4f\	4f/	.
.	2g\	4e/	.
.	.	4d/	.
2A\	2f\	[1c	2r
[2c\	[2e\	.	4g/
.	.	.	4a/
=188	=188	=188	=188
2c\]	2e\]	2c/]	4b\
.	.	.	4cc\
2B\	2d\	1.g	2dd\
2c\	1e	.	2cc\
2G\	.	.	[2b\
=189	=189	=189	=189
0A	0c	1.e	2b\]
.	.	.	4a/
.	.	.	4g/
.	.	.	1a
.	.	2c/	.
=190	=190	=190	=190
1.G	[0Bl	[0g	[0bl
2E\	.	.	.
=191	=191	=191	=191
[0El	0B_	1g]	0b_
.	.	1e	.
=192	=192	=192	=192
0E]	0B]	0el	0b]
!!LO:LB:i:g=z
=193||	=193||	=193||	=193||
*>D	*>D	*>D	*>D
*clefF4	*clefGv2	*clefG2	*clefG2
*k[]	*k[]	*k[]	*k[]
*M2/1	*M2/1	*M2/1	*M2/1
*met(C|)	*met(C|)	*met(C|)	*met(C|)
!!section: Quarta pars: Clamavi clamavi et exaudivit
!!!OMD: Quarta pars: Clamavi clamavi et exaudivit
0E	0B	2.e/	[0ee
.	.	4f/	.
.	.	4g/	.
.	.	4a/	.
.	.	[2b\	.
=194	=194	=194	=194
0A	0c	2b\]	0ee_
.	.	4a/	.
.	.	4g/	.
.	.	1a	.
=195	=195	=195	=195
1G	1B	1b	0ee_
1A	[1e	1a	.
=196	=196	=196	=196
0c	1e]	0g	0ee]
.	1e	.	.
=197	=197	=197	=197
2.A\	2.c\	1.a	[0ee
4B\	4d\	.	.
4c\	4e\	.	.
4d\	4f\	.	.
[2e\	[2g\	[2cc\	.
=198	=198	=198	=198
4e\]	4g\]	4cc\]	0ee]
4d\	4f\	4b\	.
4c\	4e\	4a/	.
4B\	4d\	4g/	.
1c	2e\	1a	.
.	2c\	.	.
=199	=199	=199	=199
1.G	0g	[0b	0dd
2A\	.	.	.
=200	=200	=200	=200
1B	1.G	0b]	0dd
1B	.	.	.
.	2A/	.	.
=201	=201	=201	=201
0E	0B	2r	0ee
.	.	1g	.
.	.	2e/	.
=202	=202	=202	=202
0r	0r	2f/	1dd
.	.	4e/	.
.	.	4d/	.
.	.	2c/	1ee
.	.	[2cc\	.
=203	=203	=203	=203
0r	0r	2cc\]	1gg
.	.	2b\	.
.	.	2a/	2ff\
.	.	2g/	[2ee\
=204	=204	=204	=204
1r	0r	1f	2ee\]
.	.	.	2dd\
1E	.	1e	1ee
=205	=205	=205	=205
[0F	[0A	2r	1cc
.	.	2A/	.
.	.	2c/	1a
.	.	2d/	.
=206	=206	=206	=206
0F]	0A]	2c/	0a
.	.	2.d/	.
.	.	4e/	.
.	.	2f/	.
=207	=207	=207	=207
[0E	[0G	1g	0b
.	.	2r	.
.	.	2g/	.
=208	=208	=208	=208
0E]	0G]	2e/	2r
.	.	2.g/	1b
.	.	4f/	.
.	.	4e/	[2cc\
.	.	4d/	.
=209	=209	=209	=209
1F	0A	1.c	2cc\]
.	.	.	2b\
1F	.	.	2.cc\
.	.	2d/	.
.	.	.	4b\
=210	=210	=210	=210
2E\	0c	2e/	2g/
1F	.	2A/	1a
.	.	2r	.
2E\	.	2e/	2g/
=211	=211	=211	=211
1F	[0A	2c/	[0a
.	.	2.d/	.
1D	.	.	.
.	.	4e/	.
.	.	2f/	.
=212	=212	=212	=212
0F	0A]	2d/	0a]
.	.	2f/	.
.	.	2.d/	.
.	.	8c/	.
.	.	8d/	.
=213	=213	=213	=213
1.E	1.B	[0e	2r
.	.	.	1g
[2A\	[2c\	.	[2a/
=214	=214	=214	=214
2A\]	2c\]	0e]	2a/]
2G\	2B\	.	1b
1A	1c	.	.
.	.	.	2a/
=215	=215	=215	=215
2.G\	[0Bl	2r	[0bl
.	.	2.g/	.
4F\	.	.	.
4E\	.	.	.
4D\	.	4f/	.
[2G\	.	4e/	.
.	.	4d/	.
=216	=216	=216	=216
2G\]	0B_	4e/	0b_
.	.	4d/	.
2E\	.	1e	.
[1G	.	.	.
.	.	2d/	.
=217	=217	=217	=217
1G]	0B_	[0el	0b_
1E	.	.	.
=218	=218	=218	=218
0El	0B]	0e]	0b]
==	==	==	==
*-	*-	*-	*-
!!!RDF**kern: l=long note in original notation
!!!RDF**kern: i=editorial accidental
!!!ENC:	Jesse Rodin 8/19/2013
!!!END:	2013/08/19/
!!!EED:	Jesse Rodin
!!!EEV:	2014/01/08/
!!attribution-level@Jos: 4 (questionable)
!!!ONB:	Translated from MusicXML and edited on 2014/01/08/ by Craig Sapp
!!muse2ps: C^@{COA}?\n@{SCT}^i2I150v85,85,85,150Q8c160
